X:535
T:Paddy Hayes'
T:Rooney's Favourite
R:jig
C:Paddy Hayes
H:Also played in Ddor
D:Martin Quinn & Angelina Carberry
Z:id:hn-jig-535
M:6/8
L:1/8
K:Dmix
dcA GEA | DED DCA, | C2G, CDE | GcA GAc |
dcA GEA | DED DCA, | CEG cGE |1 DED DFA :|2 DED D2A, ||
|: DFA dfe | ~d3 AFD | CEG c2d | edc AGE |
DFA dfe | ~d3 ABc | dcA GEA |1 DED D2A, :|2 DED DFA ||

